X:1
T:Down By the Liffeyside
M:4/4
L:1/4
K:C
 G/2| c3/2 B/2 A D| B3/2- A/2 GF/2-D/2| ED/2-E/2 C3/2 B,/2| C3G/2-F/2|\
 E C E G| c/2 A3/2 B3/2 c/2| B G A B| c3 B| E C E G| c3/2 A/2 B3/2 c/2|\
 B G A B| c3 B| cc/2-B/2 A D/2D/2| B A GF/2-D/2|E/2-G/2F/2-D/2 C3/2 B,/2|\
 C3||
